Papirus/16x16/panel/smartphone-disconnected.svg

<?xml version="1.0" encoding="UTF-8" standalone="no"?>
<svg xmlns:dc="http://purl.org/dc/elements/1.1/" xmlns:cc="http://creativecommons.org/ns#" xmlns:rdf="http://www.w3.org/1999/02/22-rdf-syntax-ns#" xmlns:svg="http://www.w3.org/2000/svg" xmlns="http://www.w3.org/2000/svg" version="1.1" id="svg4146" viewBox="0 0 15.999999 15.999999" height="16" width="16">
    <metadata id="metadata4151">
        <rdf:RDF>
            <cc:Work rdf:about="">
                <dc:format>
                    image/svg+xml
                </dc:format>
                <dc:type rdf:resource="http://purl.org/dc/dcmitype/StillImage"/>
                <dc:title/>
            </cc:Work>
        </rdf:RDF>
    </metadata>
    <path style="display:inline;opacity:1;fill:#5294e2;fill-opacity:1;stroke:none;filter:url(#filter7554);enable-background:new" d="m 3.9999996,1.0000114 c -1,0 -1,0.9999999 -1,0.9999999 l 0,11.9999757 c 0,0 0,1 1,1 l 7.9999984,0 c 1,0 1,-1 1,-1 l 0,-11.9999757 c 0,0 0,-0.9999999 -1,-0.9999999 z m 6.9999984,2.9999995 0,6.9999761 -5.9999984,0 0,-6.998023 z M 7.9999984,11.999986 c 0.552285,0 1,0.447716 1,1.000001 0,0.552285 -0.447715,1 -1,1 -0.552284,-1e-6 -0.9999989,-0.447716 -0.9999988,-1 -10e-8,-0.552284 0.4477148,-1 0.9999988,-1.000001 z" id="path6665"/>
</svg>

<?xml version="1.0" encoding="UTF-8" standalone="no"?>
<svg xmlns="http://www.w3.org/2000/svg" viewBox="0 0 16 16">
  <defs>
    <style type="text/css" id="current-color-scheme">
      .ColorScheme-Highlight {
        color:#5294e2;
      }
      </style>
  </defs>
  <path style="fill:currentColor;opacity:1" class="ColorScheme-Highlight" d="M 4 1 C 2.9999999 1 3 2 3 2 L 3 14 C 3 14 2.9999999 15 4 15 L 12 15 C 13 15 13 14 13 14 L 13 2 C 13 2 13 1 12 1 L 4 1 z M 11 4 L 11 11 L 5 11 L 5 4.0019531 L 11 4 z M 8 12 C 8.5522851 12 9 12.447715 9 13 C 9 13.552285 8.5522851 14 8 14 C 7.4477159 13.999999 6.9999999 13.552284 7 13 C 6.9999999 12.447716 7.4477159 12.000001 8 12 z "/>
</svg>
